!!!ONB: MCCC : IFC0051_00 : Extracted Monophonic Melody
!!!COM: Chopin, Frédéric
!!!OTL: Mazurkas
!!!SCT: Op.30
!!!ODT: 1835///
**kern
*thru
*staff1
*clefG2
*k[]
*a:
*M3/4
*MM112
4a
=1
4a
4.g#
8f#
=2
8.g#
16a
2cc
=3
8.b
16a
4g#
4f#
=4
8.g#
16b
2a
=5
4cc
4.b
8a
=6
8.b
16cc
2ee
=7
8.dd
16cc
4b
4a
=8
8.b
16dd
4cc
8.b
16a
=9
4a
4.g#
8f#
=10
8.g#
16a
2cc
=11
8.b
16a
4g#
4f#
=12
8.g#
16b
2a
=13
4cc
4.b
8a
=14
8.b
16cc
2ee
=15
8.dd
16cc
4b
4a
=16
8.b
16dd
2cc
=17
8.cc
16cc
4..cc
16dd
=18
8ee
16r
16ee
2ee
=19
8.ee
16ee
4ee
4dd#
=20
2.ee
=21
8.a
16a
2a
=22
8.cc
16cc
[2cc
=23
8.cc]
16cc
4cc
4b
=24
4a
4r
4r
=25
8.g
16cc
4..cc
16dd
=26
8ee
16r
16ee
2ee
=27
8.ee
16ee
4ee
4dd#
=28
2.ee
=29
8.a
16a
2a
=30
8.cc
16cc
[2cc
=31
8.cc]
16cc
4cc
4b
=32
2.a
=33
*k[f#c#g#]
2b
4dd
=34
8.cc#
16g#
4b
4a
=35
2dd
4ff#
=36
8.ff#
16dd#
4ff#
4ee
=37
8.ff#
16dd#
4ff#
4ee
=38
8aa
16r
16dd#
4ff#
4ee
=39
8.cc#
16a#
4cc#
4b
=40
8.cc#
16a#
4cc#
4b
=41
2b
4dd
=42
8.cc#
16g#
4b
4a
=43
2dd
4ff#
=44
8.ff#
16dd#
4ff#
4ee
=45
8.ff#
16dd#
4ff#
4ee
=46
8ccc#
16r
16dd#
4ff#
4ee
=47
8.dd
16cc#
4dd
4cc#
=48
8.b
16a
4b
4a
=49
2g#
4cc#
=50
8.b#
16g#
4a
4g#
=51
2g#
4cc#
=52
8.b
16g#
4a
4g#
=53
2e
4a
=54
8g#
16r
16e
4f#
4e
=55
8.g#
16f#
4g#
4f#
=56
8.g#
16f#
4g#
4f#
=57
2a
4f#
=58
8.e
16d#
4e
4c#
=59
2a
8g#
8f#
=60
8.e
16d#
4e
4c#
=61
4f#
4.g#
8a
=62
8.g#
16f#
4g#
4a
=63
8.g#
16f#
4g#
4a
=64
8.g#
16f#
4g#
4a
=65
2b
4dd
=66
8.cc#
16g#
4b
4a
=67
2dd
4ff#
=68
8.ff#
16dd#
4ff#
4ee
=69
8.ff#
16dd#
4ff#
4ee
=70
8aa
16r
16dd#
4ff#
4ee
=71
8.cc#
16a#
4cc#
4b
=72
8.cc#
16a#
4cc#
4b
=73
2b
4dd
=74
8.cc#
16g#
4b
4a
=75
2dd
4ff#
=76
8.ff#
16dd#
4ff#
4ee
=77
8.ff#
16dd#
4ff#
4ee
=78
8ccc#
16r
16dd#
4ff#
4ee
=79
8.dd
16cc#
4dd
4cc#
=80
8.b
16a
4b
4a
=81
*k[]
2g#
4f#
=82
8.g#
16a
2cc
=83
8.b
16a
4g#
4f#
=84
8.g#
16b
2a
=85
4cc
4.b
8a
=86
8.b
16cc
2ee
=87
8.dd
16cc
4b
4a
=88
8.b
16dd
4cc
8.b
16a
=89
4a
4.g#
8f#
=90
8.g#
16a
2cc
=91
8.b
16a
4g#
4f#
=92
8.g#
16b
2a
=93
4cc
4.b
8a
=94
8.b
16cc
2ee
=95
8.dd
16cc
4b
4a
=96
8.b
16dd
2cc
=97
8.cc
16cc
4..cc
16dd
=98
8ee
16r
16ee
2ee
=99
8.ee
16ee
4ee
4dd#
=100
2.ee
=101
8.a
16a
2a
=102
8.cc
16cc
[2cc
=103
8.cc]
16cc
4cc
4b
=104
4a
4r
4r
=105
4g
4..cc
16dd
=106
8ee
16r
16ee
2ee
=107
8.ee
16ee
4ee
4dd#
=108
2.ee
=109
8.a
16a
2a
=110
8.cc
16cc
[2cc
=111
8.cc]
16cc
4cc
4b
=112
2.a
==
*-
